!!!!SEGMENT: pl-cz--ii-40--001-001_brioschi-antonio--partita-b-allegro-moderato.krn
!!!cenid: 18xx:2474
!!!COM: Brioschi, Antonio
!!!COM-rismID: pe30000488
!!!CDT: <~1725-1750
!!!CNT: Italian
!!!OPR: Partita B
!!!OTL: Allegro moderato
!!!OMV: 001
!!!PDT: 1800
!!!AGN: Secular; Partita
!!!YEC: Copyright 2022 Narodowy Instytut Fryderyka Chopina (https://polishscores.org)
!!!YEM: License CC-BY-4.0 (https://creativecommons.org/licenses/by/4.0)
!!!SMS-siglum: PL-CZ
!!!SMS-shelfmark: II-40
!!!SMS-shelfwork: 001-001 M
!!!SMS-variant:
!!!SMS-altvar:
!!!NIFC-rismSourceID: 300000049
!!!NIFC-rismChildID: 300000049
!!!NIFC-islandoraID: pl-cz:8393
!!!URL-pdf-islandora: https://repozytorium.nifc.pl/islandora/object/pl-cz%3A8393/datastream/PDF/view
!!!URL-scan: https://polish.musicsources.pl/pl/lokalizacje/galeria/rekopisy/915 @EN{Scan on Polish Music Sources Website} @PL{Skany w portalu Dziedzictwo Muzyki Polskiej w otwartym dostępie}
!!!IIIF:
!!!ONB-nifc: UWAGA: części Partity: 1. Allegro moderato, 2. Menuett, 3. Adagio, 4. Rondo
!!!OMD: Allegro Moderato
!!!AIN: 2 clars 2 empty 2 fagot
!!!key:
**kern	**dynam	**kern	**dynam	**kern	**dynam	**kern	**dynam	**kern	**dynam	**kern	**dynam
*group2	*	*group2	*	*group1	*	*group1	*	*group1	*	*group1	*
*part6	*	*part5	*	*part4	*	*part3	*	*part2	*	*part1	*
*staff6	*	*staff5	*	*staff4	*	*staff3	*	*staff2	*	*staff1	*
*Iempty	*	*Iempty	*	*Ifagot	*	*Ifagot	*	*Iclars	*	*Iclars	*
*I"Cornu Secondo. in B.	*	*I"Cornu Primo. in B.	*	*I"Fagotto Secondo. in B.	*	*I"Fagotto Primo	*	*I"Clarinetto Secondo in B	*	*I"Clarinetto Primo in B.	*
*I'cor 2 in B|b	*	*I'cor 1 in B|b	*	*I'fag 2 in B|b	*	*I'fag 1	*	*I'cl 2 in B|b	*	*I'cl 1 in B|b	*
*>[A,A,B,B]	*>[A,A,B,B]	*>[A,A,B,B]	*>[A,A,B,B]	*>[A,A,B,B]	*>[A,A,B,B]	*>[A,A,B,B]	*>[A,A,B,B]	*>[A,A,B,B]	*>[A,A,B,B]	*>[A,A,B,B]	*>[A,A,B,B]
*>A	*>A	*>A	*>A	*>A	*>A	*>A	*>A	*>A	*>A	*>A	*>A
*clefG2	*	*clefG2	*	*clefF4	*	*clefF4	*	*clefG2	*	*clefG2	*
*ITrd1c2	*	*ITrd1c2	*	*	*	*	*	*ITrd1c2	*	*ITrd1c2	*
*k[b-e-]	*	*k[b-e-]	*	*k[b-e-]	*	*k[b-e-]	*	*k[b-e-]	*	*k[b-e-]	*
*B-:	*	*B-:	*	*B-:	*	*B-:	*	*B-:	*	*B-:	*
*M2/2	*	*M2/2	*	*M2/2	*	*M2/2	*	*M2/2	*	*M2/2	*
*met(c|)	*	*met(c|)	*	*met(c|)	*	*met(c|)	*	*met(c|)	*	*met(c|)	*
8r	f	8r	.	8r	.	8r	.	8r	.	8f/	f
=1	=1	=1	=1	=1	=1	=1	=1	=1	=1	=1	=1
!	!	!	!LO:DY:rj:t=f&colon;	!LO:TX:t=P:problem=mixed beam	!	!LO:TX:t=P:problem=mixed beam	!	!	!LO:DY:rj	!	!
4d/	.	4b-\	f	8BB-/L	.	8BB-/L	.	4d/	f	4b-\	.
.	.	.	.	8B-\	.	8B-\	.	.	.	.	.
4d/	.	4b-\	.	8F\	.	8F\	.	4d/	.	4b-\	.
.	.	.	.	8D\J	.	8D\J	.	.	.	.	.
4d/	.	4b-\	.	4BB-/	.	4BB-/	.	8d/L	.	8b-'\L	.
.	.	.	.	.	.	.	.	8f/	.	8cc'\	.
4r	.	4r	.	4r	.	4r	.	8b-/	.	8dd'\	.
.	.	.	.	.	.	.	.	8cc/J	.	8ee-'\J	.
=2	=2	=2	=2	=2	=2	=2	=2	=2	=2	=2	=2
!	!	!	!	!LO:TX:t=P:problem=mixed beam	!	!LO:TX:t=P:problem=mixed beam	!	!	!	!	!
4f/	.	4cc\	.	8FF/L	.	8FF/L	.	8b-/L	.	(8dd\L	.
.	.	.	.	8F\	.	8F\	.	8a/	.	8cc\)	.
4f/	.	4cc\	.	8C\	.	8C\	.	8a/	.	8cc'\	.
.	.	.	.	8AA\J	.	8AA\J	.	8a/J	.	8cc'\J	.
4f/	.	4cc\	.	4FF/	.	4FF/	.	4a/	.	4cc\	.
4r	.	4r	.	4r	.	4r	.	4r	.	8r	.
.	.	.	.	.	.	.	.	.	.	8f/	.
=3	=3	=3	=3	=3	=3	=3	=3	=3	=3	=3	=3
!	!	!	!	!LO:TX:t=P:problem=mixed beam	!	!LO:TX:t=P:problem=mixed beam	!	!	!	!	!
4f/	.	4cc\	.	8FF/L	.	8FF/L	.	4a\	.	4cc\	.
.	.	.	.	8F\	.	8F\	.	.	.	.	.
4f/	.	4cc\	.	8C\	.	8C\	.	4a\	.	4cc\	.
.	.	.	.	8AA\J	.	8AA\J	.	.	.	.	.
4f/	.	4cc\	.	4FF/	.	4FF/	.	8a\L	.	8cc\L	.
.	.	.	.	.	.	.	.	8b-\	.	8dd\	.
4r	.	4r	.	4r	.	4r	.	8cc\	.	8ee-\	.
.	.	.	.	.	.	.	.	8dd\J	.	8ff\J	.
=4	=4	=4	=4	=4	=4	=4	=4	=4	=4	=4	=4
!	!	!	!	!LO:TX:t=P:problem=mixed beam	!	!LO:TX:t=P:problem=mixed beam	!	!	!	!	!
4b-\	.	4dd\	.	8BB-/L	.	8BB-/L	.	8cc\L	.	8ee-\L	.
.	.	.	.	8B-\	.	8B-\	.	8b-\	.	8dd\	.
4b-\	.	4dd\	.	8F\	.	8F\	.	8b-\	.	8dd\	.
.	.	.	.	8D\J	.	8D\J	.	8b-\J	.	8dd\J	.
4b-\	.	4dd\	.	4BB-/	.	4BB-/	.	4b-\	.	4dd\	.
4r	.	4r	.	4r	.	4r	.	4r	.	8r	.
.	.	.	.	.	.	.	.	.	.	8bb-\	.
=5	=5	=5	=5	=5	=5	=5	=5	=5	=5	=5	=5
1B-	.	1b-	.	8E-/L	.	8G/L	.	8ff\L	.	8aa\L	.
.	.	.	.	8BB-/	.	8D/	.	8ee-\	.	8gg\	.
.	.	.	.	8E-/	.	8G/	.	8ee-\	.	8gg\	.
.	.	.	.	8BB-/J	.	8D/J	.	8ee-\J	.	8gg\J	.
.	.	.	.	8E-/L	.	8G/L	.	4ee-\	.	4gg\	.
.	.	.	.	8BB-/	.	8BB-/	.	.	.	.	.
.	.	.	.	8E-/	.	8G/	.	4r	.	8r	.
.	.	.	.	8BB-/J	.	8BB-/J	.	.	.	8bb-\	.
=6	=6	=6	=6	=6	=6	=6	=6	=6	=6	=6	=6
1B-	.	1b-	.	8D/L	.	8F/L	.	8ee-\L	.	(8gg\L	.
.	.	.	.	8BB-/	.	8BB-/	.	8dd\	.	8ff\)	.
.	.	.	.	8D/	.	8F/	.	8dd\	.	8ff'\	.
.	.	.	.	8BB-/J	.	8BB-/J	.	8dd\J	.	8ff'\J	.
.	.	.	.	8D/L	.	8F/L	.	4dd\	.	4ff\	.
.	.	.	.	8BB-/	.	8BB-/	.	.	.	.	.
.	.	.	.	8D/	.	8F/	.	8r	.	8r	.
.	.	.	.	8BB-/J	.	8BB-/J	.	8b-\	.	8dd\	.
!	!	!	!	!	!	!	!	!	!	!LO:LB:g=original	!
=7	=7	=7	=7	=7	=7	=7	=7	=7	=7	=7	=7
*	*	*2\right	*	*	*	*	*	*	*	*	*
2d/	.	2b-\	.	4F\	.	4F\	.	8dd\L	.	(8ff\L	.
.	.	.	.	.	.	.	.	8b-\	.	8dd\	.
.	.	.	.	4r	.	4r	.	8dd\	.	8ff\	.
.	.	.	.	.	.	.	.	8b-\J	.	8dd\J)	.
2f/	.	2cc\	.	4FF/	.	4FF/	.	8dd\L	.	(8ff\L	.
.	.	.	.	.	.	.	.	8cc\	.	8ee-\	.
.	.	.	.	4r	.	4r	.	8b-\	.	8dd\	.
.	.	.	.	.	.	.	.	8f\J	.	8cc\J)	.
!	!	!	!	!LO:LB:g=original	!	!LO:LB:g=original	!	!LO:LB:g=original	!	!	!
=8	=8	=8	=8	=8	=8	=8	=8	=8	=8	=8	=8
!	!	!	!	!	!	!	!	!	!	!LO:SIC:v:4cc\	!
4d/	.	4b-\	.	8B-\L	.	8B-\L	.	4d/	.	4a\	.
.	.	.	.	8F\	.	8F\	.	.	.	.	.
4r	.	4r	.	8D\	.	8D\	.	4d/	.	(16b-\LL	.
.	.	.	.	.	.	.	.	.	.	16a\	.
.	.	.	.	8F\J	.	8F\J	.	.	.	16b-\	.
.	.	.	.	.	.	.	.	.	.	16cc\JJ)	.
4d/	.	4b-\	.	8B-\L	.	8B-\L	.	16b-\LL	.	(16dd\LL	.
.	.	.	.	.	.	.	.	16a\	.	16cc\	.
.	.	.	.	8F\	.	8F\	.	16b-\	.	16dd\	.
.	.	.	.	.	.	.	.	16cc\JJ	.	16ee-\JJ)	.
4d/	.	4b-\	.	8D\	.	8D\	.	8dd\L	.	8ff\L	.
.	.	.	.	8BB-\J	.	8BB-\J	.	8ee-\J	.	8gg\J	.
=9	=9	=9	=9	=9	=9	=9	=9	=9	=9	=9	=9
4r	.	4r	.	8C/L	.	8C/L	.	8dd\L	.	8ff\L	.
.	.	.	.	8BB-/	.	8BB-/	.	8cc\J	.	8ee-\J	.
4f/	.	4cc\	.	8AA/	.	8AA/	.	4.cc\	.	4.ee-\	.
.	.	.	.	8GG/J	.	8GG/J	.	.	.	.	.
4f/	.	4cc\	.	4FF/	.	4FF/	.	.	.	.	.
.	.	.	.	.	.	.	.	8a\L	.	(8cc\L	.
4f/	.	4cc\	.	4r	.	4r	.	8b-\	.	8dd\	.
.	.	.	.	.	.	.	.	8cc\J	.	8ee-\J	.
=10	=10	=10	=10	=10	=10	=10	=10	=10	=10	=10	=10
4r	.	4r	.	8B-\L	.	8B-\L	.	8cc\L	.	8ee-\L)	.
.	.	.	.	8F\	.	8F\	.	8b-\J	.	8dd\J	.
8d/L	.	8b-\L	.	8D\	.	8D\	.	4.b-\	.	4.dd\	.
8d/J	.	8b-\J	.	8F\J	.	8F\J	.	.	.	.	.
4d/	.	4b-\	.	4BB-/	.	4BB-/	.	.	.	.	.
.	.	.	.	.	.	.	.	8d/L	.	8b-\L	.
4r	.	4r	.	4r	.	4r	.	8e-/	.	8cc\	.
.	.	.	.	.	.	.	.	8f/J	.	8dd\J	.
!	!	!LO:LB:g=original	!	!	!	!	!	!	!	!	!
=11	=11	=11	=11	=11	=11	=11	=11	=11	=11	=11	=11
2r	.	2r	.	4E-\	.	4E-/	.	8f/L	.	(8dd\L	.
.	.	.	.	.	.	.	.	8e-/	.	8cc\	.
.	.	.	.	4C/	.	4C/	.	8g/	.	8ee-\	.
.	.	.	.	.	.	.	.	8e-/J	.	8cc\J)	.
4d/	.	4b-\	.	4F\	.	4F\	.	8e-/L	.	(8cc\L	.
.	.	.	.	.	.	.	.	8d/	.	8b-\	.
4f/	.	4cc\	.	4FF/	.	4FF/	.	8c/	.	8b-\	.
.	.	.	.	.	.	.	.	8B-/J	.	8a\J)	.
!LO:LB:g=original	!	!	!	!	!	!	!	!	!	!	!
=12	=12	=12	=12	=12	=12	=12	=12	=12	=12	=12	=12
*	*	*	*	*	*	*	*	*tremolo	*	*	*
!	!	!	!	!LO:TX:t=P:problem=mixed beam	!	!LO:TX:t=P:problem=mixed beam	!	!	!	!	!
2d/	.	1b-	.	8BB-/L	.	8BB-/L	.	8f/L	.	4b-\	.
.	.	.	.	8B-\	.	8B-\	.	8f/	.	.	.
.	.	.	.	8B-\	.	8B-\	.	8f/	.	4.b-\	.
.	.	.	.	8B-\J	.	8B-\J	.	8f/J	.	.	.
*	*	*	*	*tremolo	*	*tremolo	*	*	*	*	*
*	*	*	*	*2\right	*	*2\right	*	*	*	*	*
2d/	.	.	.	8B-\L	.	8B-\L	.	8f/L	.	.	.
.	.	.	.	8B-\	.	8B-\	.	8f/	.	8cc\L	.
.	.	.	.	8B-\	.	8B-\	.	8f/	.	8dd\	.
.	.	.	.	8B-\J	.	8B-\J	.	8f/J	.	8eeX\J	.
=13	=13	=13	=13	=13	=13	=13	=13	=13	=13	=13	=13
1f	.	1cc	.	8A\L	.	8A\L	.	8f/L	.	(8ff\L	.
.	.	.	.	8A\	.	8A\	.	8f/	.	8cc\J)	.
*	*	*	*	*	*	*	*	*	*	*2\right	*
.	.	.	.	8A\	.	8A\	.	8f/	.	2cc\	.
.	.	.	.	8A\J	.	8A\J	.	8f/J	.	.	.
.	.	.	.	8F\L	.	8F\L	.	8f/L	.	.	.
.	.	.	.	8F\	.	8F\	.	8f/	.	.	.
.	.	.	.	8F\	.	8F\	.	8f/	.	4aa\	.
.	.	.	.	8F\J	.	8F\J	.	8f/J	.	.	.
*	*	*	*	*Xtremolo	*	*Xtremolo	*	*Xtremolo	*	*	*
!	!	!	!	!	!	!	!	!	!	!LO:LB:g=original	!
=14	=14	=14	=14	=14	=14	=14	=14	=14	=14	=14	=14
4f/	.	4cc\	.	8C\L	.	8C\L	.	4gg\	.	4bb-\	.
.	.	.	.	8G\	.	8G\	.	.	.	.	.
4r	.	4r	.	8En\	.	8En\	.	8r	.	8r	.
.	.	.	.	8C\J	.	8C\J	.	8gg\	.	8bb-\	.
4f/	.	4cc\	.	8F\L	.	8F\L	.	4ff\	.	4aa\	.
.	.	.	.	8c\	.	8c\	.	.	.	.	.
4r	.	4r	.	8A\	.	8A\	.	8r	.	8r	.
.	.	.	.	8F\J	.	8F\J	.	8ff\	.	8aa\	.
=15	=15	=15	=15	=15	=15	=15	=15	=15	=15	=15	=15
4f/	.	4cc\	.	8C\L	.	8C\L	.	4gg\	.	4bb-\	.
.	.	.	.	8G\	.	8G\	.	.	.	.	.
4r	.	4r	.	8En\	.	8En\	.	8r	.	8r	.
.	.	.	.	8C\J	.	8C\J	.	8gg\	.	8bb-\	.
4f/	.	4cc\	.	8F\L	.	8F\L	.	4ff\	.	4aa\	.
.	.	.	.	8c\	.	8c\	.	.	.	.	.
4r	.	4r	.	8A\	.	8A\	.	8r	.	8r	.
.	.	.	.	8F\J	.	8F\J	.	8ff\	.	8aa\	.
!	!	!	!	!LO:LB:g=original	!	!	!	!LO:LB:g=original	!	!	!
=16	=16	=16	=16	=16	=16	=16	=16	=16	=16	=16	=16
*2\right	*	*	*	*tremolo	*	*	*	*	*	*	*
2b-\	.	2dd\	.	8B-\L	.	8B-\L	.	4dd\	.	4bb-\	.
.	.	.	.	8B-\	.	8B-\	.	.	.	.	.
.	.	.	.	8B-\	.	8d\	.	8dd\L	.	8bb-\L	.
.	.	.	.	8B-\J	.	8d\J	.	8b-\J	.	8gg\J	.
*	*	*	*	*Xtremolo	*	*	*	*	*	*	*
!	!	!	!	!LO:TX:t=P:problem=mixed beam	!	!LO:TX:t=P:problem=mixed beam	!	!	!	!	!
4f/	.	4cc\	.	8c\L	.	8c\L	.	4a/	.	4ff\	.
.	.	.	.	8c\	.	8c\	.	.	.	.	.
4f/	.	4cc\	.	8C/	.	8C/	.	4g/	.	4eeX\	.
.	.	.	.	8C/J	.	8C/J	.	.	.	.	.
!	!	!	!	!	!	!LO:LB:g=original	!	!	!	!	!
=17	=17	=17	=17	=17	=17	=17	=17	=17	=17	=17	=17
4f/	.	4cc\	.	4F\	.	4F\	p	4a/	.	4ff\	.
4r	.	4r	.	4A\	.	4c\	.	4r	.	4r	.
4r	.	4r	.	8A\L	.	(8c\L	.	2r	.	2r	.
.	.	.	.	8G\	.	8B-\)	.	.	.	.	.
4d/	.	4b-\	.	8G\	.	(8B-\	.	.	.	.	.
.	.	.	.	8F\J	.	8A\J)	.	.	.	.	.
=18	=18	=18	=18	=18	=18	=18	=18	=18	=18	=18	=18
4b-\	.	4dd\	.	4B-\	.	4d\	.	4dd\	.	4bb-\	.
4r	.	4r	.	4B-\	.	4d\	.	4r	.	4r	.
2r	.	2r	.	(8B-\L	.	(8d\L	.	2r	.	2r	.
.	.	.	.	8A\	.	8c\)	.	.	.	.	.
.	.	.	.	8A\	.	(8c\	.	.	.	.	.
.	.	.	.	8G\J)	.	8B-\J)	.	.	.	.	.
=19	=19	=19	=19	=19	=19	=19	=19	=19	=19	=19	=19
4f/	.	4cc\	.	4A\	.	4c\	.	4cc\	.	4aa\	.
4r	.	4r	.	4A\	.	4c\	.	4r	.	4r	.
2r	.	2r	.	8A\L	.	(8c\L	.	2r	.	2r	.
.	.	.	.	8G\	.	8B-\)	.	.	.	.	.
.	.	.	.	8G\	.	(8B-\	.	.	.	.	.
.	.	.	.	8F\J	.	8A\J)	.	.	.	.	.
=20	=20	=20	=20	=20	=20	=20	=20	=20	=20	=20	=20
*	*	*	*	*tremolo	*	*	*	*	*	*	*
!	!	!	!	!	!	!	!	!	!	!	!LO:DY:t=f&colon;
2b-\	f	2dd\	.	8B-\L	.	8B-\L	.	4b-\	.	4dd\	f
.	.	.	.	8B-\	.	8B-\	.	.	.	.	.
.	.	.	.	8B-\	.	8d\	.	8dd\L	.	8bb-\L	.
.	.	.	.	8B-\J	.	8d\J	.	8b-\J	.	8gg\J	.
*	*	*	*	*Xtremolo	*	*	*	*	*	*	*
!	!	!	!	!LO:TX:t=P:problem=mixed beam	!	!LO:TX:t=P:problem=mixed beam	!	!	!	!	!
4cc\	.	4cc\	.	8c\L	.	8c\L	.	4a/	.	4ff\	.
.	.	.	.	8c\	.	8c\	.	.	.	.	.
4cc\	.	4cc\	.	8C/	.	8C/	.	4g/	.	4eeX\	.
.	.	.	.	8C/J	.	8C/J	.	.	.	.	.
=21	=21	=21	=21	=21	=21	=21	=21	=21	=21	=21	=21
4f/	.	4cc\	.	16F\LL	.	(16F\LL	.	4a/	.	4ff\	.
.	.	.	.	16G\	.	16G\	.	.	.	.	.
.	.	.	.	16A\	.	16A\	.	.	.	.	.
.	.	.	.	16B-\JJ	.	16B-\JJ)	.	.	.	.	.
4r	.	4r	.	8c\L	.	8c\L	.	4r	.	4r	.
.	.	.	.	8c\J	.	8c\J	.	.	.	.	.
4r	.	4r	.	(16c\LL	.	(16c\LL	.	4r	.	4r	.
.	.	.	.	16B-\	.	16B-\	.	.	.	.	.
.	.	.	.	16A\	.	16A\	.	.	.	.	.
.	.	.	.	16B-\JJ)	.	16B-\JJ)	.	.	.	.	.
4cc\	.	4cc\	.	(16c\LL	.	(16c\LL	.	4g/	.	4eeX\	.
.	.	.	.	16B-\	.	16B-\	.	.	.	.	.
.	.	.	.	16A\	.	16A\	.	.	.	.	.
.	.	.	.	16G\JJ)	.	16G\JJ)	.	.	.	.	.
!	!	!	!	!LO:LB:g=original	!	!	!	!	!	!	!
=22	=22	=22	=22	=22	=22	=22	=22	=22	=22	=22	=22
4f/	.	4cc\	.	(16F\LL	.	(16F\LL	.	4a/	.	4ff\	.
.	.	.	.	16G\	.	16G\	.	.	.	.	.
.	.	.	.	16A\	.	16A\	.	.	.	.	.
.	.	.	.	16B-\JJ)	.	16B-\JJ)	.	.	.	.	.
4r	.	4r	.	8c\L	.	8c\L	.	4r	.	4r	.
.	.	.	.	8c\J	.	8c\J	.	.	.	.	.
4r	.	4r	.	16c\LL	.	(16c\LL	.	4r	.	4r	.
.	.	.	.	16B-\	.	16B-\	.	.	.	.	.
.	.	.	.	16A\	.	16A\	.	.	.	.	.
.	.	.	.	16B-\JJ	.	16B-\JJ)	.	.	.	.	.
4cc\	.	4cc\	.	16c\LL	.	(16c\LL	.	4g/	.	4eeX\	.
.	.	.	.	16B-\	.	16B-\	.	.	.	.	.
.	.	.	.	16A\	.	16A\	.	.	.	.	.
.	.	.	.	16G\JJ	.	16G\JJ)	.	.	.	.	.
!	!	!	!	!	!	!LO:LB:g=original	!	!	!	!LO:LB:g=original	!
=23	=23	=23	=23	=23	=23	=23	=23	=23	=23	=23	=23
4f/	.	4cc\	.	8F\L	.	8F\L	.	4a/	.	4ff\	.
.	.	.	.	8F\	.	8F\J	.	.	.	.	.
4f/	.	4cc\	.	8C\	.	8C/L	.	4a/	.	4ff\	.
.	.	.	.	8AA\J	.	8AA/J	.	.	.	.	.
4f/	.	4cc\	.	4FF/	.	4FF/	.	4a/	.	4ff\	.
8r	.	8r	.	8r	.	8r	.	8ryy	.	8r	.
!LO:LB:g=original	!	!LO:LB:g=original	!	!	!	!	!	!	!	!	!
=:|!|:	=:|!|:	=:|!|:	=:|!|:	=:|!|:	=:|!|:	=:|!|:	=:|!|:	=:|!|:	=:|!|:	=:|!|:	=:|!|:
*>B	*>B	*>B	*>B	*>B	*>B	*>B	*>B	*>B	*>B	*>B	*>B
!	!	!	!	!	!	!	!	!LO:N:vis=4	!	!	!
8r	.	8r	.	8r	p	8r	.	8r	.	8ff\	.
=24	=24	=24	=24	=24	=24	=24	=24	=24	=24	=24	=24
!	!	!	!	!LO:TX:t=P:problem=mixed beam	!	!LO:TX:t=P:problem=mixed beam	!	!	!	!	!
.	.	.	.	.	.	.	.	.	.	8qdd/	.
!	!LO:DY:rj	!	!LO:DY:t=p&colon;	!	!	!	!	!	!	!	!
1F	p	1f	p	8FF/L	.	8FF/L	p	4a\	.	4cc\	.
.	.	.	.	8F\	.	8F\	.	.	.	.	.
.	.	.	.	8FF/	.	8FF/	.	4a\	.	4b-\	.
.	.	.	.	8F\J	.	8F\J	.	.	.	.	.
*	*	*	*	*tremolo	*	*	*	*	*	*	*
!	!	!	!	!LO:TX:t=P:problem=mixed beam	!	!LO:TX:t=P:problem=mixed beam	!	!	!	!	!
.	.	.	.	8FF/L	.	8FF/L	.	8b-\L	.	(8dd\L	.
.	.	.	.	8F\	.	8F\	.	8a\	.	8cc\	.
.	.	.	.	8FF/	.	8FF/	.	8g\	.	8b-\	.
.	.	.	.	8F\J	.	8F\J	.	8f\J	.	8a\J)	.
=25	=25	=25	=25	=25	=25	=25	=25	=25	=25	=25	=25
*	*	*	*	*	*	*tremolo	*	*2\right	*	*	*
!	!	!	!	!LO:TX:t=P:problem=mixed beam	!	!LO:TX:t=P:problem=mixed beam	!	!	!	!	!
1F	.	1f	.	8FF/L	.	8FF/L	.	2b-\	.	4.dd\	.
.	.	.	.	8F\	.	8F\	.	.	.	.	.
.	.	.	.	8FF/	.	8FF/	.	.	.	.	.
.	.	.	.	8F\J	.	8F\J	.	.	.	(16ff\LL	.
.	.	.	.	.	.	.	.	.	.	16dd\JJ)	.
!	!	!	!	!LO:TX:t=P:problem=mixed beam	!	!LO:TX:t=P:problem=mixed beam	!	!	!	!	!
.	.	.	.	8FF/L	.	8FF/L	.	4a\	.	4cc\	.
.	.	.	.	8F\	.	8F\	.	.	.	.	.
.	.	.	.	8FF/	.	8FF/	.	4r	.	8r	.
.	.	.	.	8F\J	.	8F\J	.	.	.	8ff\	.
!	!	!	!	!	!	!	!	!LO:LB:g=original	!	!	!
=26	=26	=26	=26	=26	=26	=26	=26	=26	=26	=26	=26
!	!	!	!	!LO:TX:t=P:problem=mixed beam	!	!LO:TX:t=P:problem=mixed beam	!	!	!	!	!
1F	.	1f	.	8FF/L	.	8FF/L	.	4a\	.	4cc\	.
.	.	.	.	8F\	.	8F\	.	.	.	.	.
.	.	.	.	8FF/	.	8FF/	.	4a\	.	4cc\	.
.	.	.	.	8F\J	.	8F\J	.	.	.	.	.
!	!	!	!	!LO:TX:t=P:problem=mixed beam	!	!LO:TX:t=P:problem=mixed beam	!	!	!	!	!
.	.	.	.	8FF/L	.	8FF/L	.	8b-\L	.	(8dd\L	.
.	.	.	.	8F\	.	8F\	.	8a\	.	8cc\	.
.	.	.	.	8FF/	.	8FF/	.	8g\	.	8b-\	.
.	.	.	.	8F\J	.	8F\J	.	8f\J	.	8a\J)	.
*	*	*	*	*Xtremolo	*	*Xtremolo	*	*	*	*	*
=27	=27	=27	=27	=27	=27	=27	=27	=27	=27	=27	=27
.	.	.	.	.	.	.	.	.	.	8qcc/	.
1r	.	1r	.	4C/	.	4C/	.	8g/L	.	8b-\L	.
.	.	.	.	.	.	.	.	8f/	.	8a\	.
.	.	.	.	8r	.	8r	.	8g/	.	8b-\	.
.	.	.	.	8C/	.	8C/	.	8a/J	.	8cc\J	.
.	.	.	.	4FF/	.	4FF/	.	4f/	.	4a\	.
.	.	.	.	4r	.	4r	.	4r	.	8r	.
.	.	.	.	.	.	.	.	.	.	8bb-\	.
!	!	!	!	!LO:LB:g=original	!	!	!	!	!	!	!
=28	=28	=28	=28	=28	=28	=28	=28	=28	=28	=28	=28
!	!LO:DY:rj	!	!	!LO:TX:t=P:problem=mixed beam	!	!LO:TX:t=P:problem=mixed beam	!	!	!	!	!
1B-	p	1f	p	8BB-/L	.	8BB-/L	.	4dd\	.	4ff\	.
.	.	.	.	8B-\	.	8B-\	.	.	.	.	.
.	.	.	.	8BB-/	.	8BB-/	.	4dd\	.	4ff\	.
.	.	.	.	8B-\J	.	8B-\J	.	.	.	.	.
*	*	*	*	*tremolo	*	*	*	*	*	*	*
!	!	!	!	!LO:TX:t=P:problem=mixed beam	!	!LO:TX:t=P:problem=mixed beam	!	!	!	!	!
.	.	.	.	8BB-/L	.	8BB-/L	.	8ee-\L	.	8gg\L	.
.	.	.	.	8B-\	.	8B-\	.	8dd\	.	8ff\	.
.	.	.	.	8BB-/	.	8BB-/	.	8cc\	.	8ee-X\	.
.	.	.	.	8B-\J	.	8B-\J	.	8b-\J	.	8dd\J	.
=29	=29	=29	=29	=29	=29	=29	=29	=29	=29	=29	=29
*	*	*	*	*	*	*tremolo	*	*	*	*	*
!	!	!	!	!LO:TX:t=P:problem=mixed beam	!	!LO:TX:t=P:problem=mixed beam	!	!	!	!	!
1B-	.	1b-	.	8BB-/L	.	8BB-/L	.	2ee-\	.	4.gg\	.
.	.	.	.	8B-\	.	8B-\	.	.	.	.	.
.	.	.	.	8BB-/	.	8BB-/	.	.	.	.	.
.	.	.	.	8B-\J	.	8B-\J	.	.	.	16bb-\LL	.
.	.	.	.	.	.	.	.	.	.	16gg\JJ	.
!	!	!	!	!LO:TX:t=P:problem=mixed beam	!	!LO:TX:t=P:problem=mixed beam	!	!	!	!LO:LB:g=original	!
.	.	.	.	8BB-/L	.	8BB-/L	.	4dd\	.	4ff\	.
.	.	.	.	8B-\	.	8B-\	.	.	.	.	.
.	.	.	.	8BB-/	.	8BB-/	.	4r	.	8r	.
.	.	.	.	8B-\J	.	8B-\J	.	.	.	8bb-\	.
=30	=30	=30	=30	=30	=30	=30	=30	=30	=30	=30	=30
!	!	!	!	!LO:TX:t=P:problem=mixed beam	!	!LO:TX:t=P:problem=mixed beam	!	!	!	!	!
1B-	.	1b-	.	8BB-/L	.	8BB-/L	.	4dd\	.	4ff\	.
.	.	.	.	8B-\	.	8B-\	.	.	.	.	.
.	.	.	.	8BB-/	.	8BB-/	.	4dd\	.	4ff\	.
.	.	.	.	8B-\J	.	8B-\J	.	.	.	.	.
!	!	!	!	!LO:TX:t=P:problem=mixed beam	!	!LO:TX:t=P:problem=mixed beam	!	!	!	!	!
.	.	.	.	8BB-/L	.	8BB-/L	.	8ee-\L	.	(8gg\L	.
.	.	.	.	8B-\	.	8B-\	.	8dd\	.	8ff\	.
.	.	.	.	8BB-/	.	8BB-/	.	8cc\	.	8ee-\	.
.	.	.	.	8B-\J	.	8B-\J	.	8b-\J	.	8dd\J)	.
*	*	*	*	*Xtremolo	*	*Xtremolo	*	*	*	*	*
!	!	!	!	!	!	!LO:LB:g=original	!	!	!	!	!
=31	=31	=31	=31	=31	=31	=31	=31	=31	=31	=31	=31
.	.	.	.	.	.	.	.	8qdd/	.	8qff/	.
4f/	.	4cc\	.	4F\	.	4F\	.	8cc\L	.	8ee-\L	.
.	.	.	.	.	.	.	.	8b-\	.	8dd\	.
8r	.	8r	.	8r	.	8r	.	8cc\	.	8ee-\	.
8f/	.	8cc\	.	8F\	.	8F\	.	8dd\J	.	8ff\J	.
4d/	.	4cc\	.	4BB-/	.	4BB-/	.	4b-\	.	4dd\	.
4r	.	4r	.	4r	.	4r	.	4r	.	8r	.
.	.	.	.	.	.	.	.	.	.	8f/	.
=32	=32	=32	=32	=32	=32	=32	=32	=32	=32	=32	=32
4B-/	.	4b-\	p	4.D\	.	4.B-\	p	4.d/	.	4.b-\	.
4r	.	4r	.	.	.	.	.	.	.	.	.
.	.	.	.	8F\	.	8c\	.	8f/	.	8cc\	.
2r	.	2r	.	4B-\	.	4d\	.	4b-\	.	4dd\	.
.	.	.	.	4B-\	.	4d\	.	4b-\	.	4dd\	.
=33	=33	=33	=33	=33	=33	=33	=33	=33	=33	=33	=33
!	!	!LO:TX:a:t=1.	!	!	!	!	!	!	!	!	!
1r	.	1r	.	8B-\L	.	(8d\L	.	8b-\L	.	(8dd\L	.
.	.	.	.	8F\	.	8c\	.	8a\	.	8cc\	.
.	.	.	.	8F\	.	8c\	.	8a\	.	8dd\	.
.	.	.	.	8B-\J	.	8d\J)	.	8b-\J	.	8dd\J)	.
.	.	.	.	4c\	.	4e-\	.	4cc\	.	4ee-\	.
.	.	.	.	4r	.	4r	.	4r	.	8r	.
.	.	.	.	.	.	.	.	.	.	8f/	.
!	!	!	!	!	!	!	!	!LO:LB:g=original	!	!	!
=34	=34	=34	=34	=34	=34	=34	=34	=34	=34	=34	=34
4F/	.	4f/	.	4.F\	.	4.c\	.	4.a\	.	4.cc\	.
4r	.	4r	.	.	.	.	.	.	.	.	.
.	.	.	.	8B-\	.	8d\	.	8b-\	.	8dd\	.
2r	.	2r	.	4c\	.	4e-\	.	4cc\	.	4ee-\	.
.	.	.	.	4c\	.	4e-\	.	4cc\	.	4ee-\	.
=35	=35	=35	=35	=35	=35	=35	=35	=35	=35	=35	=35
1r	.	1r	.	8c\L	.	(8e-\L	.	8cc\L	.	(8ee-\L	.
.	.	.	.	8B-\	.	8d\	.	8b-\	.	8dd\	.
.	.	.	.	8B-\	.	8d\	.	8b-\	.	8ee-\	.
.	.	.	p	8c\J	.	8e-\J)	.	8cc\J	.	8ff\J)	.
.	.	.	.	4d\	.	4f\	.	4dd\	.	4ff\	.
.	.	.	.	4r	.	4r	.	8r	.	8r	.
.	.	.	.	.	.	.	.	8dd\	.	8ff\	.
!	!	!	!	!LO:LB:g=original	!	!	!	!	!	!LO:LB:g=original	!
=36	=36	=36	=36	=36	=36	=36	=36	=36	=36	=36	=36
!	!LO:DY:rj:t=p&colon;	!	!	!	!	!	!	!	!	!	!
4f/	p	4cc\	.	4c\	.	4e-\	.	4cc\	.	4ee-\	.
4b-\	.	4dd\	.	4B-\	.	4d\	.	4b-\	.	4dd\	.
4.f/	.	4.cc\	.	4.F\	.	4.c\	.	4.a\	.	4.cc\	.
!	!	!	!	!	!	!	!LO:DY:rj:t=p&colon;	!	!	!	!
8b-\	.	8dd\	.	8B-\	.	8d\	p	8b-\	.	8dd\	.
=37	=37	=37	=37	=37	=37	=37	=37	=37	=37	=37	=37
4.f/	.	4.cc\	f	4.F\	.	4.c\	.	4.a\	.	4.cc\	.
8cc\	f	8dd\	.	8B-\	.	8d\	.	8b-\	.	8dd\	.
!	!	!	!	!	!	!	!LO:DY:rj:t=f&colon;	!	!	!	!
4f/	.	4cc\	.	4F\	.	4c\	f	4a\	.	4cc\	.
8r;	.	8r;	.	8r;	.	8r;	.	8r;	.	8r;	.
!	!	!	!	!	!	!	!	!	!	!	!LO:DY:rj
8r	.	8r	.	8r	.	8r	.	8r	.	8f/	f
!LO:LB:g=original	!	!LO:LB:g=original	!	!	!	!LO:LB:g=original	!	!	!	!	!
=38	=38	=38	=38	=38	=38	=38	=38	=38	=38	=38	=38
!	!	!	!	!LO:TX:t=P:problem=mixed beam	!	!LO:TX:t=P:problem=mixed beam	!	!	!	!	!
4d/	.	4b-\	f	8BB-/L	.	8BB-/L	.	4d/	.	4b-\	.
.	.	.	.	8B-\	.	8B-\	.	.	.	.	.
4d/	.	4b-\	.	8F\	.	8F\	.	4d/	.	4b-\	.
.	.	.	.	8D\J	.	8D\J	.	.	.	.	.
4d/	.	4b-\	.	4BB-/	.	4BB-/	.	8d/L	.	8b-'\L	.
.	.	.	.	.	.	.	.	8f/	.	8cc'\	.
4r	.	4r	.	4r	.	4r	.	8b-/	.	8dd'\	.
.	.	.	.	.	.	.	.	8cc/J	.	8ee-'\J	.
=39	=39	=39	=39	=39	=39	=39	=39	=39	=39	=39	=39
!	!	!	!	!LO:TX:t=P:problem=mixed beam	!	!LO:TX:t=P:problem=mixed beam	!	!	!	!	!
4f/	.	4cc\	.	8FF/L	.	8FF/L	.	(8b-\L	.	(8dd\L	.
.	.	.	.	8F\	.	8F\	.	8a\)	.	8cc\)	.
4f/	.	4cc\	.	8C\	.	8C\	.	8a'\	.	8cc'\	.
.	.	.	.	8AA\J	.	8AA\J	.	8a'\J	.	8cc'\J	.
4f/	.	4cc\	.	4FF/	.	4FF/	.	4a\	.	4cc\	.
4r	.	4r	.	4r	.	4r	.	4r	.	8r	.
.	.	.	.	.	.	.	.	.	.	8f/	.
=40	=40	=40	=40	=40	=40	=40	=40	=40	=40	=40	=40
!	!	!LO:TX:t=P:problem=takt zapisany repetycją	!	!LO:TX:t=P:problem=mixed beam	!	!LO:TX:t=P:problem=mixed beam	!	!	!	!	!
4f/	.	4cc\yy	.	8FF/L	.	8FF/L	.	4a\	.	4cc\	.
.	.	.	.	8F\	.	8F\	.	.	.	.	.
4f/	.	4cc\yy	.	8C\	.	8C\	.	4a\	.	4cc\	.
.	.	.	.	8AA\J	.	8AA\J	.	.	.	.	.
4f/	.	4cc\yy	.	4FF/	.	4FF/	.	8a\L	.	8cc'\L	.
.	.	.	.	.	.	.	.	8b-\	.	8dd'\	.
4r	.	4ryy	.	4r	.	4r	.	8cc\	.	8ee-'\	.
.	.	.	.	.	.	.	.	8dd\J	.	8ff'\J	.
=41	=41	=41	=41	=41	=41	=41	=41	=41	=41	=41	=41
!	!	!	!	!LO:TX:t=P:problem=mixed beam	!	!LO:TX:t=P:problem=mixed beam	!	!	!	!	!
4b-\	.	4dd\	.	8BB-/L	.	8BB-/L	.	8cc\L	.	(8ee-\L	.
.	.	.	.	8B-\	.	8B-\	.	8b-\	.	8dd\)	.
4b-\	.	4dd\	.	8F\	.	8F\	.	8b-\	.	8dd'\	.
.	.	.	.	8D\J	.	8D\J	.	8b-\J	.	8dd'\J	.
4b-\	.	4dd\	.	4BB-/	.	4BB-/	.	4b-\	.	4dd\	.
4r	.	4r	.	4r	.	4r	.	4r	.	8r	.
.	.	.	.	.	.	.	.	.	.	8bb-\	.
!	!	!	!	!	!	!	!	!LO:LB:g=original	!	!	!
=42	=42	=42	=42	=42	=42	=42	=42	=42	=42	=42	=42
1B-	.	1b-	.	8E-/L	.	8G\L	.	8ff\L	.	(8aa\L	.
.	.	.	.	8BB-/	.	8BB-\	.	8ee-\	.	8gg\)	.
.	.	.	.	8E-/	.	8G\	.	8ee-\	.	8gg'\	.
.	.	.	.	8BB-/J	.	8BB-\J	.	8ee-\J	.	8gg'\J	.
!	!	!	!	!	!	!	!	!	!	!LO:LB:g=original	!
.	.	.	.	8E-/L	.	8G\L	.	4ee-\	.	4gg\	.
.	.	.	.	8BB-/	.	8BB-\	.	.	.	.	.
.	.	.	.	8E-/	.	8G\	.	4r	.	8r	.
.	.	.	.	8BB-/J	.	8BB-\J	.	.	.	8bb-\	.
!	!	!	!	!LO:LB:g=original	!	!	!	!	!	!	!
=43	=43	=43	=43	=43	=43	=43	=43	=43	=43	=43	=43
1B-	.	1b-	.	8D/L	.	8F\L	.	8ee-\L	.	(8gg\L	.
.	.	.	.	8BB-/	.	8BB-\	.	8dd\	.	8ff\)	.
.	.	.	.	8D/	.	8F\	.	8dd\	.	8ff'\	.
.	.	.	.	8BB-/J	.	8BB-\J	.	8dd\J	.	8ff'\J	.
.	.	.	.	8D/L	.	8F\L	.	4dd\	.	4ff\	.
.	.	.	.	8BB-/	.	8BB-\	.	.	.	.	.
.	.	.	.	8D/	.	8F\	.	8r	.	8r	.
.	.	.	.	8BB-/J	.	8BB-\J	.	8b-\	.	8dd\	.
=44	=44	=44	=44	=44	=44	=44	=44	=44	=44	=44	=44
2d/	.	2b-\	.	8r	.	8r	.	4.dd\	.	4.ff\	.
.	.	.	.	8BB-/L	.	8BB-/L	.	.	.	.	.
.	.	.	.	8D/	.	8D/	.	.	.	.	.
.	.	.	.	8BB-/J	.	8BB-/J	.	8b-\	.	8dd\	.
2f/	.	2cc\	.	4F\	.	4F\	.	8dd\L	.	(8ff\L	.
.	.	.	.	.	.	.	.	8cc\	.	8ee-\	.
.	.	.	.	4FF/	.	4FF/	.	8b-\	.	8dd\	.
.	.	.	.	.	.	.	.	8f\J	.	8cc\J)	.
=45	=45	=45	=45	=45	=45	=45	=45	=45	=45	=45	=45
4d/	.	4b-\	.	4BB-/	.	4BB-/	.	4.d/	.	4.b-\	.
4r	.	4r	.	4B-\	.	4B-\	.	.	.	.	.
.	.	.	.	.	.	.	.	8f/	.	8cc\	.
2r	.	2r	.	4BB-/	.	4BB-/	.	4b-/	.	4dd\	.
.	.	.	.	4r	.	4r	.	4b-/	.	4dd\	.
=46	=46	=46	=46	=46	=46	=46	=46	=46	=46	=46	=46
1r	.	1r	.	4F\	.	4F\	.	(8b-/L	.	(8dd\L	.
.	.	.	.	.	.	.	.	8a/)	.	8cc\	.
.	.	.	.	4r	.	4r	.	(8a/	.	8cc\	.
.	.	.	.	.	.	.	.	8g/J)	.	8b-\J)	.
.	.	.	.	4FF/	.	4FF/	.	4g/	.	4b-\	.
.	.	.	.	4r	.	4r	.	4f/	.	4a\	.
!	!	!	!	!	!	!LO:LB:g=original	!	!	!	!	!
=47	=47	=47	=47	=47	=47	=47	=47	=47	=47	=47	=47
4f/	.	4cc\	p	4FF/	.	4FF/	.	4.a\	.	4.cc\	.
4r	.	4r	.	4F\	.	4F\	.	.	.	.	.
.	.	.	.	.	.	.	.	8b-\	.	8dd\	.
2r	.	2r	.	4FF/	.	4FF/	.	4cc\	.	4ee-\	.
.	.	.	.	4r	.	4r	.	4cc\	.	4ee-\	.
=48	=48	=48	=48	=48	=48	=48	=48	=48	=48	=48	=48
1r	.	1r	.	4B-\	.	4B-\	.	8cc\L	.	(8ee-\L	.
.	.	.	.	.	.	.	.	8ee-\	.	8gg\	.
.	.	.	.	4r	.	4r	.	8dd\	.	8ff\	.
.	.	.	.	.	.	.	.	8cc\J	.	8ee-\J)	.
.	.	.	.	4BB-/	.	4BB-/	.	4cc\	.	4ee-\	.
.	.	.	.	4r	.	4r	.	4b-\	.	4dd\	.
=49	=49	=49	=49	=49	=49	=49	=49	=49	=49	=49	=49
!	!LO:DY:t=f&colon;	!	!	!	!	!	!LO:DY:rj:t=f&colon;	!	!	!	!
4f/	f	4cc\	.	8FF/L	.	8FF/L	f	4cc\	.	4aa\	.
.	.	.	.	8C/	.	8C/	.	.	.	.	.
8r	.	8r	.	8AA/	.	8AA/	.	8r	.	8r	.
8f/	.	8cc\	.	8FF/J	.	8FF/J	.	8cc\	.	8aa\	.
4b-\	.	4dd\	.	8BB-\L	.	8BB-\L	.	4dd\	.	4bb-\	.
.	.	.	.	8F\	.	8F\	.	.	.	.	.
8r	.	8r	.	8D\	.	8D\	.	8r	.	8r	.
8f/	.	8dd\	.	8BB-\J	.	8BB-\J	.	8dd\	.	8bb-\	.
!	!	!	!	!	!	!	!	!LO:LB:g=original	!	!LO:LB:g=original	!
=50	=50	=50	=50	=50	=50	=50	=50	=50	=50	=50	=50
4f/	.	4cc\	.	8FF/L	.	8FF/L	.	4cc\	.	4aa\	.
.	.	.	.	8C/	.	8C/	.	.	.	.	.
8r	.	8r	.	8AA/	.	8AA/	.	8r	.	8r	.
8f/	.	8cc\	.	8FF/J	.	8FF/J	.	8cc\	.	8aa\	.
4b-\	.	4dd\	.	8BB-\L	.	8BB-/L	.	4dd\	.	4bb-\	.
.	.	.	.	8F\	.	8F/	.	.	.	.	.
8r	.	8r	.	8D\	.	8D/	.	8r	.	8r	.
8b-\	.	8cc\	.	8BB-\J	.	8BB-/J	.	8dd\	.	8bb-\	.
!LO:LB:g=original	!	!	!	!	!	!	!	!	!	!	!
=51	=51	=51	=51	=51	=51	=51	=51	=51	=51	=51	=51
*	*	*	*	*tremolo	*	*	*	*	*	*	*
!LO:SIC:v:s=4c/	!	!	!	!	!	!	!	!	!	!	!
4d/	.	4b-\	.	8E-\L	.	8E-\L	.	4ee-\	.	4gg\	.
.	.	.	.	8E-\	.	8E-\	.	.	.	.	.
4r	.	4r	.	8E-\	.	8G\	.	8ee-\L	.	8gg\L	.
.	.	.	.	8E-\J	.	8G\J	.	8cc\J	.	8ee-\J	.
*	*	*	*	*Xtremolo	*	*	*	*	*	*	*
!	!	!	!	!LO:TX:t=P:problem=mixed beam	!	!LO:TX:t=P:problem=mixed beam	!	!	!	!	!
4b-\	.	4dd\	.	8F\L	.	8F\L	.	4b-\	.	4dd\	.
.	.	.	.	8F\	.	8F\	.	.	.	.	.
4f/	.	4cc\	.	8FF/	.	8FF/	.	4a\	.	4cc\	.
.	f	.	.	8FF/J	.	8FF/J	.	.	.	.	.
!	!	!LO:LB:g=original	!	!LO:LB:g=original	!	!	!	!	!	!	!
=52	=52	=52	=52	=52	=52	=52	=52	=52	=52	=52	=52
4B-/	.	4b-\	f	4BB-/	.	4BB-/	p	4b-\	.	4dd\	.
4r	.	4r	.	4r	.	4r	.	4dd\	.	4ff\	.
2r	.	2r	.	2r	.	2r	.	(8dd\L	.	(8ff\L	.
.	.	.	.	.	.	.	.	8cc\)	.	8ee-\	.
.	.	.	.	.	.	.	.	(8cc\	.	8ee-\	.
.	.	.	.	.	.	.	.	8b-\J)	.	8dd\J)	.
=53	=53	=53	=53	=53	=53	=53	=53	=53	=53	=53	=53
4B-/	.	4b-\	f	4BB-/	.	4B-\	.	4gg\	.	4bb-\	.
4r	.	4r	.	4r	.	4r	.	4ee-\	.	4gg\	.
2r	.	2r	.	2r	.	2r	.	8ee-\L	.	(8gg\L	.
.	.	.	.	.	.	.	.	8dd\	.	8ff\	.
.	.	.	.	.	.	.	.	8dd\	.	8ff\	.
.	.	.	.	.	.	.	.	8cc\J	.	8ee-\J)	.
=54	=54	=54	=54	=54	=54	=54	=54	=54	=54	=54	=54
4B-/	.	4b-\	f	4BB-/	.	4B-\	.	4dd\	.	4bb-\	.
4r	.	4r	.	4r	.	4r	.	4dd\	.	4ff\	.
2r	.	2r	.	2r	.	2r	.	8dd\L	.	(8ff\L	.
.	.	.	.	.	.	.	.	8cc\	.	8ee-\	.
.	.	.	.	.	.	.	.	8cc\	.	8ee-\	.
.	.	.	.	.	.	.	.	8b-\J	.	8dd\J)	.
=55	=55	=55	=55	=55	=55	=55	=55	=55	=55	=55	=55
*	*	*	*	*tremolo	*	*	*	*	*	*	*
2r	.	2r	.	8E-\L	.	8E-\L	f	4g/	.	4cc\	.
.	.	.	.	8E-\	.	8E-\	.	.	.	.	.
.	.	.	.	8E-\	.	8G\	.	8g/L	.	8ee-\L	.
.	.	.	.	8E-\J	.	8G\J	.	8e-/J	.	8cc\J	.
*	*	*	*	*Xtremolo	*	*	*	*	*	*	*
!	!	!	!	!LO:TX:t=P:problem=mixed beam	!	!LO:TX:t=P:problem=mixed beam	!	!	!	!	!
4b-\	.	4ee-\	.	8F\L	.	8F\L	.	4d/	.	4b-\	.
.	.	.	.	8F\	.	8F\	.	.	.	.	.
4f/	.	4cc\	.	8FF/	.	8FF/	.	4c/	.	4a\	.
.	.	.	.	8FF/J	.	8FF/J	.	.	.	.	.
!	!	!	!	!	!	!LO:LB:g=original	!	!	!	!	!
=56	=56	=56	=56	=56	=56	=56	=56	=56	=56	=56	=56
4d/	.	4b-\	.	16BB-\LL	.	(16BB-\LL	.	4d/	.	4b-\	.
.	.	.	.	16C\	.	16C\	.	.	.	.	.
.	.	.	.	16D\	.	16D\	.	.	.	.	.
.	.	.	.	16E-\JJ	.	16E-\JJ)	.	.	.	.	.
4r	.	4r	.	8F\L	.	8F\L	.	4r	.	4r	.
.	.	.	.	8F\J	.	8F\J	.	.	.	.	.
4r	.	4r	.	16F\LL	.	(16F\LL	.	4r	.	4r	.
.	.	.	.	16E-\	.	16E-\	.	.	.	.	.
.	.	.	.	16D\	.	16D\	.	.	.	.	.
.	.	.	.	16E-\JJ	.	16E-\JJ)	.	.	.	.	.
4f/	.	4cc\	.	16F\LL	.	(16F\LL	.	4cc\	.	4aa\	.
.	.	.	.	16E-\	.	16E-\	.	.	.	.	.
.	.	.	.	16D\	.	16D\	.	.	.	.	.
.	.	.	.	16C\JJ	.	16C\JJ)	.	.	.	.	.
=57	=57	=57	=57	=57	=57	=57	=57	=57	=57	=57	=57
4b-\	.	4dd\	.	(16BB-\LL	.	(16BB-\LL	.	4dd\	.	4bb-\	.
.	.	.	.	16C\	.	16C\	.	.	.	.	.
.	.	.	.	16D\	.	16D\	.	.	.	.	.
.	.	.	.	16E-\JJ)	.	16E-\JJ)	.	.	.	.	.
4r	.	4r	.	8F\L	.	8F\L	.	4r	.	4r	.
.	.	.	.	8F\J	.	8F\J	.	.	.	.	.
4r	.	4r	.	(16F\LL	.	(16F\LL	.	4r	.	4r	.
.	.	.	.	16E-\	.	16E-\	.	.	.	.	.
.	.	.	.	16D\	.	16D\	.	.	.	.	.
.	.	.	.	16E-\JJ)	.	16E-\JJ)	.	.	.	.	.
4f/	.	4cc\	.	(16F\LL	.	(16F\LL	.	4cc\	.	4aa\	.
.	.	.	.	16E-\	.	16E-\	.	.	.	.	.
.	.	.	.	16D\	.	16D\	.	.	.	.	.
.	.	.	.	16C\JJ)	.	16C\JJ)	.	.	.	.	.
=58	=58	=58	=58	=58	=58	=58	=58	=58	=58	=58	=58
!	!	!	!	!LO:TX:t=P:problem=mixed beam	!	!LO:TX:t=P:problem=mixed beam	!	!	!	!	!
4b-\	.	4dd\	.	8BB-/L	.	8BB-/L	.	4dd\	.	4bb-\	.
.	.	.	.	8B-\	.	8B-\	.	.	.	.	.
4d/	.	4b-\	.	8F\	.	8F\	.	4dd\	.	4bb-\	.
.	.	.	.	8D\J	.	8D\J	.	.	.	.	.
4d/	.	4b-\	.	4BB-/	.	4BB-/	.	4dd\	.	4bb-\	.
!LO:N:vis=8	!	!LO:N:vis=8	!	!	!	!	!	!	!	!LO:N:vis=8	!
4r	.	4r	.	4r	.	4r	.	4ryy	.	4r	.
==:|!	==:|!	==:|!	==:|!	==:|!	==:|!	==:|!	==:|!	==:|!	==:|!	==:|!	==:|!
*-	*-	*-	*-	*-	*-	*-	*-	*-	*-	*-	*-
!!!system-decoration: [(g1)][(g2)]
!!!ENC: Krzysztof Stępień
!!!END: 2021-06-17
!!!ENC: Marta Lawrence
!!!END: 2021-06-24
